X: 39118
T: Sweet Blunts, The
R: jig
M: 6/8
K: Dmajor
DFA BAF|dfe dBA|DFA BAF|E~E2 FEF|
DFA BAF|dfe dBA|E~E2 FEF|DED D3:|
dBA ~F3|AFE ~F3|dBA ~F3|ABd fef|
dBA ~F3|AFE ~F3|E~E2 FEF|DED D3:|

